brandFactory_export/3.Masa/Estomago _3Masa.svg

<?xml version="1.0" encoding="UTF-8"?>
<svg width="24px" height="24px" viewBox="0 0 24 24" version="1.1" xmlns="http://www.w3.org/2000/svg" xmlns:xlink="http://www.w3.org/1999/xlink">
    <title>3.Masa/Estomago _3Masa</title>
    <g id="Symbols" stroke="none" stroke-width="1" fill="none" fill-rule="evenodd">
        <g id="3.Masa/Estomago-_3Masa" fill="#5CB615" fill-rule="nonzero">
            <path d="M11.3613445,23.6235294 C10.2890756,23.6235294 9.27394958,23.4285714 8.35294118,23.0252101 C7.64705882,22.712605 7.12605042,22.1109244 6.8,21.2336134 C6.53109244,20.5042017 6.45714286,19.6638655 6.58823529,18.7327731 C6.69915966,17.9529412 6.59495798,17.5226891 6.28571429,17.4453782 C6.11092437,17.4016807 5.97310924,17.4722689 5.72773109,17.6033613 L5.57983193,17.6840336 C4.78655462,18.0907563 4.27226891,18.8302521 3.72773109,19.610084 C3.60672269,19.7848739 3.48571429,19.9596639 3.35798319,20.1344538 C2.48067227,21.3445378 1.52605042,21.1495798 0.880672269,20.7731092 C-0.161344538,20.1680672 -0.0672268908,19.1764706 0.131092437,18.7394958 C0.826890756,16.8436975 2.23865546,15.307563 4.09411765,14.4470588 C5.20672269,13.9361345 6.42016807,13.7008403 7.61008403,13.7647059 C7.62016807,13.7647059 7.63361345,13.7647059 7.64369748,13.7680672 C8.44033613,13.7310924 9.71428571,13.9159664 10.5512605,14.1042017 C10.7798319,14.1647059 10.9781513,14.2218487 11.1596639,14.2789916 C12.2621849,14.3159664 12.5983193,14.107563 12.712605,13.9831933 C12.8941176,13.7815126 12.8302521,13.3378151 12.7630252,12.8638655 C12.7058824,12.4537815 12.6386555,11.9932773 12.7159664,11.5495798 C12.7092437,11.3915966 12.7327731,11.1092437 12.7764706,10.8235294 C12.9647059,9.40840336 13.4521008,8.28571429 14.2218487,7.48235294 C14.1142857,7.31764706 14.0134454,7.14957983 13.9159664,6.97478992 C12.9378151,5.16638655 12.7159664,3.08235294 13.2941176,1.1092437 C13.5193277,0.460504202 14.3092437,-0.302521008 15.610084,0.141176471 C16.2554622,0.36302521 16.5378151,0.739495798 16.6588235,1.01848739 C16.8773109,1.51596639 16.7327731,1.98655462 16.6789916,2.13445378 C16.3798319,3.19327731 16.5008403,4.30252101 17.0184874,5.2605042 C17.1798319,5.55294118 17.3714286,5.82521008 17.5865546,6.0605042 C18.0168067,6.04033613 18.3831933,6.07058824 18.6285714,6.10084034 C18.7865546,6.12436975 18.9411765,6.1512605 19.0722689,6.16134454 C21.5966387,6.57815126 24.0773109,8.41344538 23.5630252,12.3327731 C23.5159664,12.6890756 23.4453782,13.0453782 23.3546218,13.3815126 C23.3512605,13.394958 23.3478992,13.405042 23.3445378,13.4184874 C22.8739496,16.2789916 21.2470588,18.9109244 18.7596639,20.8369748 C16.3697479,22.6554622 13.7378151,23.6235294 11.3613445,23.6235294" id="Path"></path>
        </g>
    </g>
</svg>

<svg width="24" height="24" viewBox="0 0 24 24" xmlns="http://www.w3.org/2000/svg"><path d="M11.361 23.624c-1.072 0-2.087-.195-3.008-.599-.706-.312-1.227-.914-1.553-1.791-.269-.73-.343-1.57-.212-2.501.111-.78.007-1.21-.302-1.288-.175-.043-.313.027-.558.158l-.148.081c-.793.407-1.308 1.146-1.852 1.926-.121.175-.242.35-.37.524-.877 1.21-1.832 1.016-2.477.64-1.042-.606-.948-1.598-.75-2.035a7.61 7.61 0 013.963-4.292 7.493 7.493 0 013.55-.679c.796-.037 2.07.148 2.907.336.229.06.427.118.609.175 1.102.037 1.438-.171 1.553-.296.181-.201.117-.645.05-1.12-.057-.41-.124-.87-.047-1.313a4.39 4.39 0 01.06-.726c.189-1.416.676-2.538 1.446-3.342a8.46 8.46 0 01-.306-.507 7.704 7.704 0 01-.622-5.866C13.52.461 14.31-.303 15.61.141c.645.222.928.598 1.049.877.218.498.074.969.02 1.116a4.16 4.16 0 00.34 3.127c.16.292.352.564.568.8.43-.02.796.01 1.042.04.158.023.312.05.443.06 2.525.417 5.005 2.252 4.491 6.172a8.153 8.153 0 01-.208 1.049l-.01.036c-.471 2.861-2.098 5.493-4.585 7.419-2.39 1.818-5.022 2.787-7.399 2.787" fill="#5CB615" fill-rule="nonzero"/></svg>
